X:1
T:Wallhead, 87.87.47
T:Wallhead, 87.87.47
T:Thomas Wallhead, 1879
T:Public Domain Courtesy of the Cyber Hymnal™
C:Thomas Wallhead, 1879
Z:Public Domain
Z:Courtesy of the Cyber Hymnal™
%%score ( 1 2 ) 3
L:1/8
Q:1/4=112
M:4/4
K:C
V:1 treble 
V:2 treble 
V:3 bass 
V:1
 [CE]3 [CE] [CE]2 [B,D]2 | [CE]2 [CA]2 [CG]2 [Cc]2 | [FA]2 [FA]2 [EG]2 [EA]2 | [DF]2 [DG]2 E4 | %4
 [CE]3 [CE] [DG]2 [DG]2 | [Cc]2 [Ec]2 [Ee]3 [Ed] | [Ec]2 [^DB]2 [EG]3 [EA] | [DG]2 [D^F]2 [DG]4 | %8
 [Fd]3 [Fd] [Fd]2 [Ec]2 | [FB]3 [FA] [FA]2 [FG]2 | [EG]3 [EG] [FA]2 [FB]2 | [Ec]2 [Ad]2 [^Ge]4 | %12
 [Ge]3 [Fd] [Ec]2 [Af]2 | e4 z2 x6 | [Ec]2 |] %15
V:2
 x8 | x8 | x8 | x4 E4 | x8 | x8 | x8 | x8 | x8 | x8 | x8 | x8 | x8 | G6 (d4 F2) | x2 |] %15
V:3
 [C,G,]3 [C,G,] [C,G,]2 [G,,G,]2 | [C,G,]2 [C,F,]2 [C,E,]2 [E,G,]2 | %2
 ([F,A,][G,B,]) ([A,C][B,D]) [CE]2 [A,^C]2 | [D,D]2 [G,,B,]2 [C,C]4 | %4
 [C,G,]3 [C,G,] [B,,G,]2 [B,,G,]2 | [A,,A,]2 [A,C]2 [^G,B,]2 [E,G,]2 | %6
 [A,,A,]2 [B,,^F,]2 [E,G,]3 [C,C] | [D,B,]2 [D,C]2 [G,,B,]4 | z8 | %9
 [G,,D]3 [G,,C] [G,,C]2 [G,,B,]2 | [C,C]3 [C,C] [F,C]2 [D,D]2 | [A,C]2 [F,A,]2 [E,B,]4 | %12
 [C,C]3 [G,B,] [A,C]2 [D,C]2 | [G,C]4 [G,,B,]4 x4 | [C,C]2 |] %15

